!!!SOCIAL_FUNCTION:	songs of an undetermined dance
!!!PDT:	1922
!!!OTL: No_28_Undetermined_Dance_Song_(b).krn
!!!REG: Southwest
!!!LANG: Non-Tone
!!!LING_GROUP: Uto-Aztecan
**kern
*staff1
=1-
*clefF4
*k[b-e-a-]
*M3/4
8e-\L
16e-\L
16f\JJ
16e-\LL
16d\
16c\
16B-\JJ
8.B-\L
16E-\Jk
=2
8e-\L
16e-\L
16f\JJ
16e-\LL
16d\
16c\
16B-\JJ
8.B-\L
16c\Jk
=3
8B-\L
16B-\L
16c\JJ
16B-\LL
16A-\
16G\
16F\JJ
16F\LK
8F\
16F\Jk
=4
8F\L
16F\L
16G\JJ
16F\LL
16E-\J
8E-\J
16E-\LK
8.E-\J
=5
8E-\L
16E-\L
16F\JJ
16E-/LL
16D/
16C/
16BB-/JJ
16BB-/LK
8.BB-/J
=6
8F\L
16F\L
16G\JJ
16F\LL
16E-\J
8E-\J
16E-\LL
16E-\J
8E-\J
=7
8E-\L
16E-\L
16F\JJ
16E-/LL
16D/
16C/
16BB-/JJ
16BB-/LK
8.BB-/J
=8||
*M2/4
8BB-/
32BB-/LLK
[16.BB-/JJ
16BB-/LL]
16BB-/J
8BB-/J
=9
8BB-/
32BB-/LLK
[16.BB-/JJ
16BB-/LL]
16BB-/
16BB-/
16BB-/JJ
=10
4.BB-/
8BB-/
=11
2BB-/
==
*-
